X: 27326
T: Mist Covered Mountain, The
R: jig
M: 6/8
K: Edorian
B,2 D|:~E3 EFA|BGE EDB,|D3 DEF|ADE DB,A,|
B,EE EFA|BEE EFA|Bcd AFD|1 ~F3 FED:|2 FEE E2d||
edB e2f|edB BAF|EDB, D2E|~F3 ABd|
edB e2f|edB BAF|EDB, D2E|FEE E2e|
edB edB|edB BAF|EDB, D2E|FEF EDB,|
B,A,B, D/E/FD|E/F/GE A/B/cA|B/c/dB cBA|BAF AFD||

